assets/features/channel/other/mcb.svg

<svg width="80" height="80" viewBox="0 0 80 80" fill="none" xmlns="http://www.w3.org/2000/svg">
<rect x="0.5" y="0.5" width="79" height="79" rx="7.5" fill="white"/>
<rect x="0.5" y="0.5" width="79" height="79" rx="7.5" stroke="#EEEEEE"/>
<path d="M59.676 54.4316H20.0762V56.7869H59.676V54.4316Z" fill="#50B848"/>
<path d="M39.8895 30.1247C44.103 28.1593 48.5957 26.8583 53.2076 26.2679C49.6932 24.6367 45.0124 23.6001 39.8666 23.6001C34.7208 23.6001 30.0553 24.6177 26.5256 26.2679C31.145 26.8578 35.6452 28.1588 39.8666 30.1247" fill="#50B848"/>
<path d="M39.8665 32.114C34.8458 29.6582 29.3985 28.1934 23.8231 27.7998C22.6861 28.562 21.7161 29.5475 20.9719 30.6962C27.5694 30.7326 34.0572 32.3867 39.8665 35.5134C45.6847 32.3883 52.1795 30.7345 58.7841 30.6962C58.0429 29.5438 57.0708 28.5576 55.9291 27.7998C50.3477 28.1943 44.8944 29.659 39.8665 32.114Z" fill="#50B848"/>
<path d="M40.7851 39.8544C40.8 38.9518 41.0796 38.0734 41.5891 37.3282C42.0987 36.583 42.8157 36.0037 43.6515 35.6622C48.5205 33.5447 53.7754 32.4586 59.085 32.4723H59.5234C59.6144 32.8635 59.6617 33.2635 59.6645 33.6652V43.0442H40.7622L40.7851 39.8544Z" fill="#50B848"/>
<path d="M38.9746 39.8544C38.9586 38.952 38.6787 38.0741 38.1692 37.3291C37.6599 36.5841 36.9433 36.0046 36.1082 35.6622C31.2391 33.545 25.9842 32.4589 20.6746 32.4723H20.2286C20.142 32.864 20.0973 33.2639 20.0952 33.6652V43.0442H39.0051L38.9746 39.8544Z" fill="#50B848"/>
<path d="M34.6179 45.8339C34.6179 45.0336 36.1083 45.4528 36.1083 45.106C36.1083 44.9993 36.032 44.9688 35.8414 44.9688C35.1477 44.9688 34.1414 44.9688 32.8416 44.9688H31.1873L28.3629 49.6526L25.5155 44.9688H23.8308C22.5386 44.9688 21.5247 44.9688 20.831 44.9688C20.6404 44.9688 20.5679 44.9993 20.5679 45.106C20.5679 45.4871 22.0583 45.0336 22.0583 45.8339V50.8455C22.0583 52.6976 20 52.1984 20 52.5833C20 52.69 20.122 52.7358 20.3392 52.7358C21.0444 52.7358 21.7 52.7129 22.3404 52.7129C22.9807 52.7129 23.6287 52.7358 24.3453 52.7358C24.555 52.7358 24.6846 52.69 24.6846 52.5833C24.6846 52.2022 22.6225 52.6976 22.6225 50.8455V46.1959H22.6606L26.6476 52.629C26.6722 52.6795 26.71 52.7225 26.7569 52.7533C26.8039 52.7842 26.8583 52.8018 26.9144 52.8044C27.0364 52.8044 27.0745 52.7358 27.1431 52.629L31.0234 46.1311H31.0577V51.8706C31.0577 52.6633 29.575 52.2517 29.575 52.5986C29.575 52.6976 29.6398 52.7358 29.838 52.7358C30.5279 52.7358 31.538 52.7129 32.8302 52.7129C34.1224 52.7129 35.1172 52.7358 35.83 52.7358C36.0206 52.7358 36.0968 52.6976 36.0968 52.5986C36.0968 52.2175 34.6064 52.6633 34.6064 51.8706L34.6179 45.8339Z" fill="#005BAA"/>
<path d="M47.5168 50.0339C47.5168 49.931 47.4673 49.8624 47.3224 49.8624C46.987 49.8624 47.1319 50.2435 46.5029 50.8875C45.5168 51.9209 44.1746 52.5408 42.7484 52.6216C40.995 52.6216 40.004 51.7336 40.004 48.8486C40.004 46.8097 40.6939 45.0833 42.7484 45.0833C44.1015 45.0833 45.3251 45.8455 46.1789 46.7297C47.189 47.7892 46.9946 48.1474 47.3224 48.1474C47.4902 48.1474 47.4902 48.0597 47.4902 47.9378V45.2167C47.4902 45.0337 47.3606 44.988 47.2348 44.988C46.8307 44.988 47.1128 45.5139 46.4915 45.5139C45.6415 45.5139 44.5056 44.8013 42.5197 44.8013C39.154 44.8013 36.1084 46.379 36.1084 48.8486C36.1084 51.3182 38.8338 52.8922 42.5883 52.8922C44.4941 52.8922 45.9045 52.2862 46.6478 52.2862C47.1433 52.2862 46.9832 52.7131 47.3186 52.7131C47.4444 52.7131 47.513 52.6445 47.513 52.492L47.5168 50.0339Z" fill="#005BAA"/>
<path d="M53.0856 45.2205H54.1338C55.4107 45.2205 55.6584 45.4606 55.6584 46.7449C55.6584 48.2503 55.2011 48.4256 53.9051 48.4256H53.0703L53.0856 45.2205ZM49.5445 51.8708C49.5445 52.6635 48.0541 52.2519 48.0541 52.5988C48.0541 52.6978 48.1265 52.7359 48.3247 52.7359C49.0108 52.7359 50.021 52.7131 51.3131 52.7131C52.6053 52.7131 53.8327 52.7359 55.1249 52.7359C58.4067 52.7359 60 51.9737 60 50.4493C60 48.9248 57.5567 48.6428 55.2659 48.6238V48.5742C58.0141 48.5742 59.4358 47.8882 59.4358 46.8287C59.4358 45.7693 58.319 44.9766 54.8618 44.9766C53.7183 44.9766 52.5748 44.9766 51.3093 44.9766C50.0438 44.9766 49.0223 44.9766 48.3209 44.9766C48.1227 44.9766 48.0503 45.007 48.0503 45.1138C48.0503 45.4949 49.5407 45.0413 49.5407 45.8417L49.5445 51.8708ZM53.886 48.7038C55.6928 48.7038 56.0968 49.1726 56.0968 50.5674C56.0968 52.3281 55.5898 52.4425 53.9737 52.4425C53.2647 52.4425 53.0856 52.3129 53.0856 52.0309V48.6886L53.886 48.7038Z" fill="#005BAA"/>
</svg>

<svg xmlns="http://www.w3.org/2000/svg" width="80" height="80" fill="none" viewBox="0 0 80 80"><rect width="79" height="79" x=".5" y=".5" fill="#fff" rx="7.5"/><rect width="79" height="79" x=".5" y=".5" stroke="#eee" rx="7.5"/><path fill="#50b848" d="M59.676 54.432h-39.6v2.355h39.6zM39.89 30.125a45 45 0 0 1 13.318-3.857c-3.515-1.631-8.196-2.668-13.341-2.668-5.146 0-9.812 1.018-13.341 2.668 4.619.59 9.12 1.89 13.34 3.857"/><path fill="#50b848" d="M39.867 32.114A43.5 43.5 0 0 0 23.823 27.8a10.1 10.1 0 0 0-2.851 2.896 40.34 40.34 0 0 1 18.895 4.817 40.5 40.5 0 0 1 18.917-4.817A9.9 9.9 0 0 0 55.93 27.8a43.6 43.6 0 0 0-16.062 4.314m.917 7.74a4.61 4.61 0 0 1 2.867-4.192 38.45 38.45 0 0 1 15.433-3.19h.438q.137.589.141 1.193v9.38H40.762zm-1.81 0a4.62 4.62 0 0 0-2.867-4.192 38.5 38.5 0 0 0-15.433-3.19h-.446a5.7 5.7 0 0 0-.134 1.193v9.38h18.91z"/><path fill="#005baa" d="M34.618 45.834c0-.8 1.49-.381 1.49-.728 0-.107-.076-.137-.267-.137h-4.654l-2.824 4.684-2.847-4.684H20.83c-.19 0-.263.03-.263.137 0 .381 1.49-.072 1.49.728v5.011c0 1.853-2.058 1.353-2.058 1.738 0 .107.122.153.34.153.704 0 1.36-.023 2-.023s1.289.023 2.005.023c.21 0 .34-.046.34-.153 0-.38-2.062.115-2.062-1.737v-4.65h.038l3.987 6.433a.31.31 0 0 0 .266.175c.122 0 .16-.068.23-.175l3.88-6.498h.034v5.74c0 .792-1.483.38-1.483.728 0 .099.065.137.263.137.69 0 1.7-.023 2.992-.023s2.287.023 3 .023c.19 0 .267-.038.267-.137 0-.381-1.49.064-1.49-.728zm12.899 4.2c0-.103-.05-.172-.195-.172-.335 0-.19.381-.82 1.026a5.63 5.63 0 0 1-3.754 1.734c-1.753 0-2.744-.888-2.744-3.773 0-2.04.69-3.766 2.744-3.766 1.354 0 2.577.763 3.43 1.647 1.011 1.06.817 1.417 1.144 1.417.168 0 .168-.087.168-.21v-2.72c0-.183-.13-.229-.255-.229-.404 0-.122.526-.743.526-.85 0-1.986-.713-3.972-.713-3.366 0-6.412 1.578-6.412 4.048s2.726 4.043 6.48 4.043c1.906 0 3.316-.606 4.06-.606.495 0 .335.427.67.427.126 0 .195-.069.195-.221zm5.569-4.814h1.048c1.277 0 1.524.24 1.524 1.525 0 1.505-.457 1.68-1.753 1.68h-.835zm-3.541 6.65c0 .794-1.49.382-1.49.729 0 .099.072.137.27.137.686 0 1.696-.023 2.988-.023s2.52.023 3.812.023c3.282 0 4.875-.762 4.875-2.287s-2.443-1.806-4.734-1.825v-.05c2.748 0 4.17-.686 4.17-1.745s-1.117-1.852-4.574-1.852H48.32c-.198 0-.27.03-.27.137 0 .38 1.49-.073 1.49.728zm4.341-3.166c1.807 0 2.21.469 2.21 1.863 0 1.761-.506 1.876-2.122 1.876-.71 0-.888-.13-.888-.412v-3.342z"/></svg>
